Simply-Cyan-Circles/scalable/apps/preferences-desktop-remote-desktop.svg

<svg xmlns="http://www.w3.org/2000/svg" width="48" height="48" viewBox="0 0 12.7 12.7"><path fill="#5beedc" d="M6.344.073a6.29 6.29 0 0 0-6.29 6.29 6.29 6.29 0 0 0 6.29 6.288 6.29 6.29 0 0 0 6.29-6.289 6.29 6.29 0 0 0-6.29-6.29zm-.018.936a5.407 5.407 0 0 1 5.407 5.407 5.407 5.407 0 0 1-1.168 3.347H8.207v-.09a.119.119 0 0 0-.12-.119h-.339v-.592h1.64c.37 0 .67-.298.67-.669v-4.58c0-.37-.3-.67-.67-.67h-5.98c-.37 0-.669.3-.669.67v4.58c0 .37.299.67.67.67h1.68v.591h-.477a.119.119 0 0 0-.119.12v.09H2.081A5.407 5.407 0 0 1 .919 6.415 5.407 5.407 0 0 1 6.326 1.01zM3.916 3.71h5.001c.287 0 .518.23.518.517v3.537c0 .287-.231.518-.518.518h-5a.516.516 0 0 1-.518-.518V4.227c0-.286.231-.517.518-.517zm3.321.878a.119.119 0 0 0-.119.119v.945c0 .066.054.119.12.119h1.346a.119.119 0 0 0 .12-.12v-.944a.119.119 0 0 0-.12-.12H7.237zm-2.862 1.04a.118.118 0 0 0-.118.12v1.56c0 .065.053.118.118.118h1.703a.118.118 0 0 0 .119-.118v-1.56a.119.119 0 0 0-.12-.12H4.376zm-1.714 4.754h1.832v.094c0 .066.053.12.12.12h3.475a.119.119 0 0 0 .119-.12v-.094h1.787a5.407 5.407 0 0 1-3.668 1.441 5.407 5.407 0 0 1-3.665-1.44z"/></svg>

<?xml version="1.0" encoding="UTF-8" standalone="no"?>
<svg
   xmlns:dc="http://purl.org/dc/elements/1.1/"
   xmlns:cc="http://creativecommons.org/ns#"
   xmlns:rdf="http://www.w3.org/1999/02/22-rdf-syntax-ns#"
   xmlns:svg="http://www.w3.org/2000/svg"
   xmlns="http://www.w3.org/2000/svg"
   xmlns:sodipodi="http://sodipodi.sourceforge.net/DTD/sodipodi-0.dtd"
   xmlns:inkscape="http://www.inkscape.org/namespaces/inkscape"
   width="48"
   height="48"
   viewBox="0 0 12.7 12.7"
   version="1.1"
   id="svg4"
   sodipodi:docname="preferences-desktop-remote-desktop.svg"
   inkscape:version="0.92.4 (5da689c313, 2019-01-14)">
  <metadata
     id="metadata10">
    <rdf:RDF>
      <cc:Work
         rdf:about="">
        <dc:format>image/svg+xml</dc:format>
        <dc:type
           rdf:resource="http://purl.org/dc/dcmitype/StillImage" />
        <dc:title></dc:title>
      </cc:Work>
    </rdf:RDF>
  </metadata>
  <defs
     id="defs8" />
  <sodipodi:namedview
     pagecolor="#ffffff"
     bordercolor="#666666"
     borderopacity="1"
     objecttolerance="10"
     gridtolerance="10"
     guidetolerance="10"
     inkscape:pageopacity="0"
     inkscape:pageshadow="2"
     inkscape:window-width="1087"
     inkscape:window-height="480"
     id="namedview6"
     showgrid="false"
     inkscape:zoom="4.9166667"
     inkscape:cx="2.1355932"
     inkscape:cy="24"
     inkscape:window-x="0"
     inkscape:window-y="25"
     inkscape:window-maximized="0"
     inkscape:current-layer="svg4" />
  <path
     d="m 6.344,0.073 a 6.29,6.29 0 0 0 -6.29,6.29 6.29,6.29 0 0 0 6.29,6.288 6.29,6.29 0 0 0 6.29,-6.289 6.29,6.29 0 0 0 -6.29,-6.29 z M 6.326,1.009 a 5.407,5.407 0 0 1 5.407,5.407 5.407,5.407 0 0 1 -1.168,3.347 H 8.207 V 9.673 A 0.119,0.119 0 0 0 8.087,9.554 H 7.748 V 8.962 h 1.64 c 0.37,0 0.67,-0.298 0.67,-0.669 v -4.58 c 0,-0.37 -0.3,-0.67 -0.67,-0.67 h -5.98 c -0.37,0 -0.669,0.3 -0.669,0.67 v 4.58 c 0,0.37 0.299,0.67 0.67,0.67 h 1.68 V 9.554 H 4.612 a 0.119,0.119 0 0 0 -0.119,0.12 v 0.09 H 2.081 A 5.407,5.407 0 0 1 0.919,6.415 5.407,5.407 0 0 1 6.326,1.01 Z M 3.916,3.71 h 5.001 c 0.287,0 0.518,0.23 0.518,0.517 v 3.537 c 0,0.287 -0.231,0.518 -0.518,0.518 h -5 A 0.516,0.516 0 0 1 3.399,7.764 V 4.227 C 3.399,3.941 3.63,3.71 3.917,3.71 Z M 7.237,4.588 A 0.119,0.119 0 0 0 7.118,4.707 v 0.945 c 0,0.066 0.054,0.119 0.12,0.119 h 1.346 a 0.119,0.119 0 0 0 0.12,-0.12 V 4.707 A 0.119,0.119 0 0 0 8.584,4.587 H 7.237 Z m -2.862,1.04 a 0.118,0.118 0 0 0 -0.118,0.12 v 1.56 c 0,0.065 0.053,0.118 0.118,0.118 H 6.078 A 0.118,0.118 0 0 0 6.197,7.308 V 5.748 A 0.119,0.119 0 0 0 6.077,5.628 H 4.376 Z m -1.714,4.754 h 1.832 v 0.094 c 0,0.066 0.053,0.12 0.12,0.12 h 3.475 a 0.119,0.119 0 0 0 0.119,-0.12 v -0.094 h 1.787 a 5.407,5.407 0 0 1 -3.668,1.441 5.407,5.407 0 0 1 -3.665,-1.44 z"
     id="path2"
     inkscape:connector-curvature="0"
     style="fill:#5beedc" />
</svg>
